X: 5
T: Windbroke
R: reel
M: 4/4
L: 1/8
K: Emin
BE E/E/E GAB(E/E/|E)GAd B2AG|BEE/E/E GAB(c|c)BAG B2AG|
BE ~E2 GAB(~E|E)GAd B2AB|edde B3G|1 A3G FGAc:|2 A2 AG FGA2||
Begf efd.e|zedf efed|Begf efg.a|za2 g fede|
Begf efd.e|zedf efeB|1 c3A B3G|A2AG FGA2:|2 c8- |cd (3cBA FGAc||


Tune 910	Setting 14098

